source/img/icon-video.svg

<?xml version="1.0" encoding="UTF-8"?>
<svg width="32px" height="22px" viewBox="0 0 32 22" version="1.1" xmlns="http://www.w3.org/2000/svg" xmlns:xlink="http://www.w3.org/1999/xlink">
    <!-- Generator: Sketch 54.1 (76490) - https://sketchapp.com -->
    <title>video-svg</title>
    <desc>Created with Sketch.</desc>
    <g id="Page-1" stroke="none" stroke-width="1" fill="none" fill-rule="evenodd">
        <g id="video-svg" fill="#63D1BB" fill-rule="nonzero">
            <path d="M26,10 L32,6 L32,22 L26,18 L26,10 Z M24,10 L24,18 C24,20.209139 22.209139,22 20,22 L4,22 C1.790861,22 2.705415e-16,20.209139 0,18 L0,10 C-2.705415e-16,7.790861 1.790861,6 4,6 L14,6 C14,4.8954305 14.8954305,4 16,4 L16,2 L5,2 C4.44771525,2 4,1.55228475 4,1 C4,0.44771525 4.44771525,0 5,0 L17,0 C17.5522847,0 18,0.44771525 18,1 L18,4 C19.1045695,4 20,4.8954305 20,6 C22.209139,6 24,7.790861 24,10 Z M12,10 L4,10 L4,18 L12,18 L12,10 Z M20,11 C20,10.4477153 19.5522847,10 19,10 L15,10 C14.4477153,10 14,10.4477153 14,11 C14,11.5522847 14.4477153,12 15,12 L19,12 C19.5522847,12 20,11.5522847 20,11 Z" id="Shape"></path>
        </g>
    </g>
</svg>

<svg width="32" height="22" xmlns="http://www.w3.org/2000/svg"><path d="M26 10l6-4v16l-6-4v-8zm-2 0v8a4 4 0 01-4 4H4a4 4 0 01-4-4v-8a4 4 0 014-4h10a2 2 0 012-2V2H5a1 1 0 110-2h12a1 1 0 011 1v3a2 2 0 012 2 4 4 0 014 4zm-12 0H4v8h8v-8zm8 1a1 1 0 00-1-1h-4a1 1 0 000 2h4a1 1 0 001-1z" fill="#63D1BB"/></svg>
